%
(makino_4axis)
(025N003)
(OPERATION: 25.3.1)
(tool_name: TK38)
(D=38.00  R=0.00  L=285.00  FL=6.00  SXC=280.00)
N1 G00 G91 G30 Z0
N2 G30 X0 Y0
N3 G40 G17 G80 G90 G49
N4 T2185 M06
N5 T703
N6 G90 G59
N7 S1200 M03
N8 M251
N9 M26
N10 M08
N11 (B=0.000)
N12 M11
N13 #21=0.0
N14 M553
N15 G00 G90 B0.0
N16 M10
N17 G00 G90 X-298.5 Y46.
N18 G00 G90 G43 H01 Z99.5
N19 S1200 M03
N20 M97
N21 Z-202.5
N22 G01 Z-270.5 F120.
N23 G00 Z-202.5
N24 Z4.5
N25 Y116.9
N26 Z-202.5
N27 G01 Z-270.5
N28 G00 Z-202.5
N29 Z4.5
N30 X298.5
N31 Z-202.5
N32 G01 Z-270.5
N33 G00 Z-202.5
N34 Z4.5
N35 Y46.
N36 Z-202.5
N37 G01 Z-270.5
N38 G00 Z-202.5
N39 Z99.5
N40 (makino_4axis)
N41 (025N003)
N42 (OPERATION: 25.3.2)
N43 (tool_name: TK38)
N44 (D=38.00  R=0.00  L=285.00  FL=6.00  SXC=280.00)
N45 M251
N46 M26
N47 (OPERATION: 25.3.2)
N48 G00 G90 G43 H01 Z99.5
N49 G00 G90 X300.5 Y44.
N50 Z.5
N51 G01 Z-272.5 B0.0 F120.
N52 G00 Z.5
N53 Y118.9
N54 G01 Z-272.5
N55 G00 Z.5
N56 X-300.5
N57 G01 Z-272.5
N58 G00 Z.5
N59 Y44.
N60 G01 Z-272.5
N61 G00 Z.5
N62 Z99.5
M05
M09 M27
G49
G00 G91 G30 Z0
G30 X0 Y0
M01
M30
%
(MachineTime: 18.87 )
(OutDate: 2024/12/20)
(OutTime: 13:42:48)
(Designer: zhaoqiang)
(Workers.: fc0043)
