%
(makino_4axis)
(025N015)
(OPERATION: 25.15.1)
(tool_name: GD-2.65-4-2.64-0.38-90-0.2-0)
(D=2.65  R=0.00  L=2.80  FL=2.64  SXC=2.64)
N1 G00 G91 G30 Z0
N2 G30 X0 Y0
N3 G40 G17 G80 G90 G49
N4 T2027 M06
N5 T2028
N6 G90 G59
N7 S12000 M03
N8 M252
N9 M08
N10 (B=0.000)
N11 M11
N12 #21=0.0
N13 M553
N14 G00 G90 B0.0
N15 M10
N16 G00 G90 X0.0 Y12.5
N17 G00 G90 G43 H01 Z111.9
N18 M97
N19 Z2.5
N20 G01 Z-3.152 F240.
N21 Y12.173
N22 X300.5 F800.
N23 G03 X332.327 Y44. I0.0 J31.827
N24 G01 Y118.9
N25 G03 X300.5 Y150.727 I-31.827 J0.0
N26 G01 X-300.5
N27 G03 X-332.327 Y118.9 I0.0 J-31.827
N28 G01 Y44.
N29 G03 X-300.5 Y12.173 I31.827 J0.0
N30 G01 X0.0
N31 Y12.827
N32 X-300.5
N33 G02 X-331.673 Y44. I0.0 J31.173
N34 G01 Y118.9
N35 G02 X-300.5 Y150.073 I31.173 J0.0
N36 G01 X300.5
N37 G02 X331.673 Y118.9 I0.0 J-31.173
N38 G01 Y44.
N39 G02 X300.5 Y12.827 I-31.173 J0.0
N40 G01 X0.0
N41 Y12.5
N42 Z-1.827
N43 G00 Z111.9
M05
M09 M27
G49
G00 G91 G30 Z0
G30 X0 Y0
M01
M30
%
(MachineTime: 4.14 )
(OutDate: 2024/08/23)
(OutTime: 13:15:30)
(Designer: zhaoqiang)
(Workers.: fc0043)
