%
(makino_4axis)
(025N017)
(OPERATION: 25.17.1)
(tool_name: M010100-035)
(D=3.20  R=0.00  L=2.60  FL=2.60  SXC=2.60)
N1 G00 G91 G30 Z0
N2 G30 X0 Y0
N3 G40 G17 G80 G90 G49
N4 T2028 M06
N5 G90 G59
N6 S14000 M03
N7 M252
N8 M08
N9 (B=0.000)
N10 M11
N11 #21=0.0
N12 M553
N13 G00 G90 B0.0
N14 M10
N15 G00 G90 X0.0 Y143.9
N16 G00 G90 G43 H01 Z111.9
N17 S14000 M03
N18 M97
N19 Z-.08
N20 G01 Z-3.08 F240.
N21 X.013 Y143.905
N22 Y143.92
N23 X0.0 Y143.925
N24 X-300.5 F800.
N25 G03 X-325.525 Y118.9 I0.0 J-25.025
N26 G01 Y44.
N27 G03 X-300.5 Y18.975 I25.025 J0.0
N28 G01 X300.5
N29 G03 X325.525 Y44. I0.0 J25.025
N30 G01 Y118.9
N31 G03 X300.5 Y143.925 I-25.025 J0.0
N32 G01 X0.0
N33 X-.013 Y143.92
N34 Y143.905
N35 X0.0 Y143.9
N36 Z-.08
N37 Z-3.08 F240.
N38 X-.013 Y143.895
N39 Y143.88
N40 X0.0 Y143.875
N41 X300.5 F800.
N42 G02 X325.475 Y118.9 I0.0 J-24.975
N43 G01 Y44.
N44 G02 X300.5 Y19.025 I-24.975 J0.0
N45 G01 X-300.5
N46 G02 X-325.475 Y44. I0.0 J24.975
N47 G01 Y118.9
N48 G02 X-300.5 Y143.875 I24.975 J0.0
N49 G01 X0.0
N50 X.013 Y143.88
N51 Y143.895
N52 X0.0 Y143.9
N53 Z-.08
N54 G00 Z111.9
M05
M09 M27
G49
G00 G91 G30 Z0
G30 X0 Y0
M01
M30
%
(MachineTime: 4.05 )
(OutDate: 2024/09/10)
(OutTime: 15:36:46)
(Designer: zhaoqiang)
(Workers.: fc0043)
