%
(makino_4axis)
(025N018)
(OPERATION: 25.18.1)
(tool_name: M010100-035_J)
(D=3.20  R=0.00  L=2.60  FL=2.60  SXC=2.60)
N1 G00 G91 G30 Z0
N2 G30 X0 Y0
N3 G40 G17 G80 G90 G49
N4 T101 M06
N5 G90 G59
N6 S12000 M03
N7 M252
N8 M08
N9 (B=0.000)
N10 M11
N11 #21=0.0
N12 M553
N13 G00 G90 B0.0
N14 M10
N15 G00 G90 X0.0 Y143.9
N16 G00 G90 G43 H01 Z111.9
N17 S12000 M03
N18 M97
N19 Z-.1
N20 G01 Z-3.1 F180.
N21 G41 X.018 Y143.907 D308
N22 Y143.928
N23 X0.0 Y143.935
N24 X-300.5 F600.
N25 G03 X-325.535 Y118.9 I0.0 J-25.035
N26 G01 Y44.
N27 G03 X-300.5 Y18.965 I25.035 J0.0
N28 G01 X300.5
N29 G03 X325.535 Y44. I0.0 J25.035
N30 G01 Y118.9
N31 G03 X300.5 Y143.935 I-25.035 J0.0
N32 G01 X0.0
N33 X-.018 Y143.928
N34 Y143.907
N35 X0.0 Y143.9
N36 G01 G40
N37 Z-.1
N38 G00 Z111.9
N39 (makino_4axis)
N40 (025N018)
N41 (OPERATION: 25.18.1_COPY)
N42 (tool_name: M010100-035_J)
N43 (D=3.20  R=0.00  L=2.60  FL=2.60  SXC=2.60)
N44 M252
N45 (OPERATION: 25.18.1_COPY)
N46 G00 G90 G43 H01 Z111.9
N47 G00 G90 X0.0 Y143.9
N48 Z-.1
N49 G40 G01 Z-3.1 B0.0 F180.
N50 G41 X-.018 Y143.893 D308
N51 Y143.872
N52 X0.0 Y143.865
N53 X300.5 F600.
N54 G02 X325.465 Y118.9 I0.0 J-24.965
N55 G01 Y44.
N56 G02 X300.5 Y19.035 I-24.965 J0.0
N57 G01 X-300.5
N58 G02 X-325.465 Y44. I0.0 J24.965
N59 G01 Y118.9
N60 G02 X-300.5 Y143.865 I24.965 J0.0
N61 G01 X0.0
N62 X.018 Y143.872
N63 Y143.893
N64 X0.0 Y143.9
N65 G01 G40
N66 Z-.1
N67 G00 Z111.9
M05
M09 M27
G49
G00 G91 G30 Z0
G30 X0 Y0
M01
M30
%
(MachineTime: 2.78 )
(OutDate: 2024/09/10)
(OutTime: 21:07:41)
(Designer: Administrator)
(Workers.: fc0043)
