%
(makino_4axis)
(025N011)
(OPERATION: 25.11.1)
(tool_name: DR5.2BEY)
(D=5.20  R=0.00  L=26.00  FL=26.00  SXC=26.00)
N1 G00 G91 G30 Z0
N2 G30 X0 Y0
N3 G40 G17 G80 G90 G49
N4 T984 M06
N5 T1512
N6 G90 G59
N7 S3800 M03
N8 M251
N9 M08
N10 (B=0.000)
N11 M11
N12 #21=0.0
N13 M553
N14 G00 G90 B0.0
N15 M10
N16 G00 G90 X337. Y26.45
N17 G00 G90 G43 H01 Z99.5
N18 S3800 M03
N19 M97
N20 G99 G81 X337. Y26.45 Z-12.577 R.5 F500.
N21 G80
N22 G00 Z9.5
N23 G81 Y136.45 Z-12.577 R.5
N24 G80
N25 G00 Z9.5
N26 G81 X225. Y156.95 Z-12.577 R.5
N27 G80
N28 G00 Z9.5
N29 G81 X75. Z-12.577 R.5
N30 G80
N31 G00 Z9.5
N32 G81 X-75. Z-12.577 R.5
N33 G80
N34 G00 Z9.5
N35 G81 X-225. Z-12.577 R.5
N36 G80
N37 G00 Z9.5
N38 G81 X-337. Y136.45 Z-12.577 R.5
N39 G80
N40 G00 Z9.5
N41 G81 Y26.45 Z-12.577 R.5
N42 G80
N43 G00 Z9.5
N44 G81 X-225. Y5.95 Z-12.577 R.5
N45 G80
N46 G00 Z9.5
N47 G81 X-75. Z-12.577 R.5
N48 G80
N49 G00 Z9.5
N50 G81 X75. Z-12.577 R.5
N51 G80
N52 G00 Z9.5
N53 G81 X225. Z-12.577 R.5
N54 G80
N55 G00 Z9.5
N56 G80
N57 G00 Z99.5
M05
M09 M27
G49
G00 G91 G30 Z0
G30 X0 Y0
M01
M30
%
(MachineTime: 1.25 )
(OutDate: 2024/08/23)
(OutTime: 13:15:30)
(Designer: zhaoqiang)
(Workers.: fc0043)
