%
(makino_4axis)
(025N019)
(OPERATION: 25.19.1)
(tool_name: STM5X0.8_YT)
(D=5.20  R=0.00  L=27.00  FL=16.00  SXC=27.00)
N1 G00 G91 G30 Z0
N2 G30 X0 Y0
N3 G40 G17 G80 G90 G49
N4 T1195 M06
N5 T352
N6 G90 G59
N7 S600 M03
N8 M251
N9 M08
N10 (B=0.000)
N11 M11
N12 #21=0.0
N13 M553
N14 G00 G90 B0.0
N15 M10
N16 G00 G90 X337. Y26.45
N17 G00 G90 G43 H01 Z99.5
N18 S600 M03
N19 M97
N20 M135 S600
N21 G99 G84 X337. Y26.45 Z-11. R2.5 F480. Q10.5
N22 G80
N23 G00 Z19.5
N24 M135 S600
N25 G84 Y136.45 Z-11. R2.5 Q10.5
N26 G80
N27 G00 Z19.5
N28 M135 S600
N29 G84 X225. Y156.95 Z-11. R2.5 Q10.5
N30 G80
N31 G00 Z19.5
N32 M135 S600
N33 G84 X75. Z-11. R2.5 Q10.5
N34 G80
N35 G00 Z19.5
N36 M135 S600
N37 G84 X-75. Z-11. R2.5 Q10.5
N38 G80
N39 G00 Z19.5
N40 M135 S600
N41 G84 X-225. Z-11. R2.5 Q10.5
N42 G80
N43 G00 Z19.5
N44 M135 S600
N45 G84 X-337. Y136.45 Z-11. R2.5 Q10.5
N46 G80
N47 G00 Z19.5
N48 M135 S600
N49 G84 Y26.45 Z-11. R2.5 Q10.5
N50 G80
N51 G00 Z19.5
N52 M135 S600
N53 G84 X-225. Y5.95 Z-11. R2.5 Q10.5
N54 G80
N55 G00 Z19.5
N56 M135 S600
N57 G84 X-75. Z-11. R2.5 Q10.5
N58 G80
N59 G00 Z19.5
N60 M135 S600
N61 G84 X75. Z-11. R2.5 Q10.5
N62 G80
N63 G00 Z19.5
N64 M135 S600
N65 G84 X225. Z-11. R2.5 Q10.5
N66 G80
N67 G00 Z19.5
N68 G80
N69 G00 Z99.5
M05
M09 M27
G49
G00 G91 G30 Z0
G30 X0 Y0
M01
M30
%
(MachineTime: 1.33 )
(OutDate: 2024/08/23)
(OutTime: 13:15:30)
(Designer: zhaoqiang)
(Workers.: fc0043)
