%
(makino_4axis)
(025N016)
(OPERATION: 25.16.1)
(tool_name: GD-2.65-4-2.64-0.38-90-0.2-0)
(D=2.65  R=0.00  L=2.80  FL=2.64  SXC=2.64)
N1 G00 G91 G30 Z0
N2 G30 X0 Y0
N3 G40 G17 G80 G90 G49
N4 T2027 M06
N5 T2028
N6 G90 G59
N7 S12000 M03
N8 M252
N9 (OPERATION: 25.16.1)
N10 M08
N11 (B=0.000)
N12 M11
N13 #21=0.0
N14 M553
N15 G00 G90 B0.0
N16 M10
N17 G00 G90 X0.0 Y12.5
N18 G00 G90 G43 H01 Z111.9
N19 M97
N20 Z-.162
N21 G01 Z-3.162 F150.
N22 X-.1 Y12.303
N23 G41 Y12.253 D302
N24 X-.089 Y12.202
N25 X-.052 Y12.164
N26 X0.0 Y12.153
N27 X300.5 F500.
N28 G03 X332.347 Y44. I0.0 J31.847
N29 G01 Y118.9
N30 G03 X300.5 Y150.747 I-31.847 J0.0
N31 G01 X-300.5
N32 G03 X-332.347 Y118.9 I0.0 J-31.847
N33 G01 Y44.
N34 G03 X-300.5 Y12.153 I31.847 J0.0
N35 G01 X0.0
N36 X.052 Y12.164
N37 X.089 Y12.202
N38 X.1 Y12.253
N39 G01 G40
N40 Y12.303
N41 Y12.697
N42 G41 Y12.747 F150. D302
N43 X.089 Y12.798
N44 X.052 Y12.836
N45 X0.0 Y12.847
N46 X-300.5 F500.
N47 G02 X-331.653 Y44. I0.0 J31.153
N48 G01 Y118.9
N49 G02 X-300.5 Y150.053 I31.153 J0.0
N50 G01 X300.5
N51 G02 X331.653 Y118.9 I0.0 J-31.153
N52 G01 Y44.
N53 G02 X300.5 Y12.847 I-31.153 J0.0
N54 G01 X0.0
N55 G03 X-.087 Y12.697 I0.0 J-.1
N56 G01 X-.017 Y12.577
N57 G01 G40
N58 X.008 Y12.533
N59 Z-1.837
N60 G00 Z111.9
M05
M09 M27
G49
G00 G91 G30 Z0
G30 X0 Y0
M01
M30
%
(MachineTime: 6.46 )
(OutDate: 2024/08/23)
(OutTime: 13:15:30)
(Designer: zhaoqiang)
(Workers.: fc0043)
