%
(makino_4axis)
(025N014)
(OPERATION: 25.14.1)
(tool_name: D3-J)
(D=3.00  R=0.00  L=8.00  FL=8.00  SXC=8.00)
N1 G00 G91 G30 Z0
N2 G30 X0 Y0
N3 G40 G17 G80 G90 G49
N4 T290 M06
N5 T2027
N6 G90 G59
N7 S12000 M03
N8 M252
N9 M08
N10 (B=0.000)
N11 M11
N12 #21=0.0
N13 M553
N14 G00 G90 B0.0
N15 M10
N16 G00 G90 X-.075 Y12.418
N17 G00 G90 G43 H01 Z111.9
N18 M97
N19 Z-3.092
N20 G01 X-.052 Y12.404 F2000.
N21 X-.027 Y12.398
N22 X0.0
N23 X300.5
N24 G03 X332.102 Y44. I0.0 J31.602
N25 G01 Y118.9
N26 G03 X300.5 Y150.502 I-31.602 J0.0
N27 G01 X-300.5
N28 G03 X-332.102 Y118.9 I0.0 J-31.602
N29 G01 Y44.
N30 G03 X-300.5 Y12.398 I31.602 J0.0
N31 G01 X0.0
N32 X.027
N33 X.052 Y12.404
N34 X.075 Y12.418
N35 Y12.582
N36 X.052 Y12.596
N37 X.027 Y12.602
N38 X0.0
N39 X-300.5
N40 G02 X-331.898 Y44. I0.0 J31.398
N41 G01 Y118.9
N42 G02 X-300.5 Y150.298 I31.398 J0.0
N43 G01 X300.5
N44 G02 X331.898 Y118.9 I0.0 J-31.398
N45 G01 Y44.
N46 G02 X300.5 Y12.602 I-31.398 J0.0
N47 G01 X0.0
N48 X-.027
N49 X-.052 Y12.596
N50 X-.075 Y12.582
N51 G00 Z111.9
M05
M09 M27
G49
G00 G91 G30 Z0
G30 X0 Y0
M01
M30
%
(MachineTime: 1.78 )
(OutDate: 2024/08/23)
(OutTime: 13:15:30)
(Designer: zhaoqiang)
(Workers.: fc0043)
