%
(makino_4axis)
(025N013)
(OPERATION: 25.13.1)
(tool_name: M990803-002)
(D=8.10  R=0.00  L=2.15  FL=2.15  SXC=2.15)
N1 G00 G91 G30 Z0
N2 G30 X0 Y0
N3 G40 G17 G80 G90 G49
N4 T2008 M06
N5 T290
N6 G90 G59
N7 S12000 M03
N8 M252
N9 M08
N10 (B=0.000)
N11 M11
N12 #21=0.0
N13 M553
N14 G00 G90 B0.0
N15 M10
N16 G00 G90 X-5. Y34.08
N17 G00 G90 G43 H01 Z211.9
N18 S12000 M03
N19 M97
N20 Z.35
N21 G01 Z-2.65 F2500.
N22 G03 X0.0 Y29.08 I5. J0.0
N23 G01 X300.5
N24 G03 X315.42 Y44. I0.0 J14.92
N25 G01 Y118.9
N26 G03 X300.5 Y133.82 I-14.92 J0.0
N27 G01 X-300.5
N28 G03 X-315.42 Y118.9 I0.0 J-14.92
N29 G01 Y44.
N30 G03 X-300.5 Y29.08 I14.92 J0.0
N31 G01 X0.0
N32 G03 X5. Y34.08 I0.0 J5.
N33 G01 Z.35
N34 G00 Z211.9
M05
M09 M27
G49
G00 G91 G30 Z0
G30 X0 Y0
M01
M30
%
(MachineTime: 0.85 )
(OutDate: 2024/08/23)
(OutTime: 13:15:30)
(Designer: zhaoqiang)
(Workers.: fc0043)
